X:1
T:MAPLE LEAF RAG
T:MAPLE LEAF RAG
T:SONG.
T:Music by SCOTT JOPLIN.
T:       Words by SYDNEY BROWN.
T:Copyright 1903 by John Stark &amp; Son.
T:Copyright 1903 by John Stark &amp; Son.
T:Copyright 1903 by John Stark &amp; Son.
T:Copyright 1903 by John Stark &amp; Son.
C:Music by
Z:Words by
Z:Copyright 1903 by John Stark & Son.
%%score ( 1 2 ) { 3 | 4 }
L:1/8
Q:1/4=80
M:2/4
K:Eb
V:1 treble nm="Voice"
V:2 treble 
V:3 treble nm="Piano"
V:4 bass 
V:1
"^Introduction." z | z4 | z4 | z4 | z2 z || B | E/ E/ B/ D/ G/ B B/4 B/4 | %7
w: |||||I|came from ole Vir- gin- y, From de|
w: |||||I|dropp'd in- to de swell- est ball The|
w: |||||De|men were struck wid jeal- ous- y De|
 B/ D/ F/ B/ B"_my""_de" z/ B/ | E/ E/ B/ D/ G/ B B/4 B/4 | B/ D/ F/ B/ B B/ B/ | %10
w: coun- ty Ac- o- mac I|have no wealth to speak of ’cept de|clothes up- on my back I can|
w: great ex- clu- sive it But|face was dead a- gin me and my|trous- ers did- n't fit But when|
w: raz- ors gan to flash But|la- dies gath- ered 'round me foi I’d|sho- ly made a mash De *|
 _c/ c/ c/ c/ B/ B/ B/ B/ | _c/ c/ c/ c/ B/ B B/ | E/ E/ _G/ E/ E/ G/ G/ B/ | E/ E/ _G/ B/ E/ E/ || %14
w: do de coun- try hoe down I can|buck and wing to show down And|while I’m in the no- tion just step|back and watch my mo- tion|
w: Ma- ple Leaf was start- ed my tim-|id- i- ty de- part- ed I|lost my terp- i- da- tion you could|taste de ad- mir- a- tion|
w: fin- est belle she sent a boy to|call a coach * and four We|rode a- round a sea- son till we|both were lost to rea- son|
[M:2/4]"^CHORUS." (G/B/) | e e e e | e/ B/ c/ G/ B/ c/ E/ E/ | %17
w: Oh *|go ’way man I|hyp- no- tize dis na- tion I can|
w: |||
w: |||
"_foundation" E/ F/ _G/ E/ F/ =G/ E/ F/ | G/ E/ F E (G/B/) | e e e e | e/ B/ c/ G/ B/ c/ E/ E/ | %21
w: shake de earth’s * * * wid de|Ma- ple Leaf Rag Oh *|go ’way man just|hold yo breath a min- it For there’s|
w: ||||
w: ||||
 E/ F/ _G/ E/ F/ =G/ E/ F/ | G/ E/ F E z |: %23
w: not a stunt thats in it with the|Ma- ple Leaf Rag|
w: ||
w: ||
[M:2/4]"^DANCE._ Either or both strains may be used for the dance."[Q:1/4=90] z4 | z4 | z4 | z4 | %27
w: ||||
w: ||||
w: ||||
 z4 | z4 | z4 | z4 | z4 | z4 | z4 | z4 | z4 | z4 | z4 |1 z4 :|2 z4 ||[M:2/4] z4 | z4 | z4 | z4 | %44
w: |||||||||||||||||
w: |||||||||||||||||
w: |||||||||||||||||
 z4 | z4 | z4 | z4 | z4 | z4 | z4 | z4 | z4 | z4 | z4 | z2 z!D.C.! |] %56
w: ||||||||||||
w: ||||||||||||
w: ||||||||||||
V:2
 x | x4 | x4 | x4 | x3 || x | x4 | x7/2 B/ | x4 | x4 | x4 | x4 | x4 | x3 ||[M:2/4] x | x3 e/ e/ | %16
w: |||||||||||||||* can|
 x4 | x4 | x4 | x4 | x4 | x4 | x4 |:[M:2/4] x4 | x4 | x4 | x4 | x4 | x4 | x4 | x4 | x4 | x4 | x4 | %34
w: ||||||||||||||||||
 x4 | x4 | x4 | x4 |1 x4 :|2 x4 ||[M:2/4] x4 | x4 | x4 | x4 | x4 | x4 | x4 | x4 | x4 | x4 | x4 | %51
w: |||||||||||||||||
 x4 | x4 | x4 | x4 | x3 |] %56
w: |||||
V:3
 z | z/ E/[B,B]/E/ G/[B,B]/ [G,B,_D] | [A,B,=D]>^C [A,B,D] z | z/ E/[B,B]/E/ G/[B,B]/ [G,B,_D] | %4
 [A,B,=D]>^C !fermata![A,B,D] || z | z [B,EG][B,EG][B,_D=EG] | z [B,DFA][B,DFA] z | %8
 z [B,EG][B,EG][B,_D=EG] | z [B,DFA][B,DFA] z | z/ E/_G/[_C_c]/ z/ [B,B]/z/[B,B]/ | %11
 z/ E/_G/_c/ z/ [B,B]/ z | z/ [B,E]/_G/B/ z/ [B,E]/G/B/ | z/ [B,E]/_G/B/ [B,G]/[B,G]/ ||[M:2/4] z | %15
 [_CE^F][CEF][CEF][CEF] | [B,EG][B,EG][B,EG][B,EG] | [_CE_G][CEG] [B,E=G][B,EG] | %18
 [B,EG][B,EG][B,EG] z | [_CE^F][CEF][CEF][CEF] | [B,EG][B,EG][B,EG][B,EG] | %21
 [_CE_G][CEG] [B,E=G][B,EG] | [B,EG][B,EG][B,EG] z |:[M:2/4] z/ d/[Bb]/d/ f/[=A=a]d/ | %24
 [_A_a]/d/f/[Gg]/- [Gg]/B/[Ff]/B/ | z/ G/[Ee]/G/ B/[Cc]G/ | [Ee]/G/B/[Cc]/- [Cc]/G/[Cc] | %27
 z/ B/[Dd]/F/ A/[Cc]B/ | [Dd]/F/A/[Cc]/- [Cc]/A/[Cc] | z/ G/[Ee]/G/ B/[Cc]G/ | %30
 [Ee]/G/B/[Cc]/- [Cc]/G/[Cc] | z/ d/[Bb]/d/ f/[=A=a]d/ | [_A_a]/d/f/[Gg]/- [Gg]/B/[Ff]/B/ | %33
 z/ G/[Ee]/G/ B/[Cc]G/ | [Ee][Ee] [Dd][_D_d] | z/ C/=E/G/ c/G/E/C/ | z/ C/F/A/ [Cc][CFA] | %37
 [A,=CEG]/z/[A,CEG]/ z/ [_A,F]B, |1 [G,E][B,B][B,B][B,B] :|2 z/ E/G/B/ e z ||[M:2/4] ecec | %41
 ef/g/- g/f/e/c/ | B/c[EG]/- [EG]2 | z/ B/[Ec]/G/ B/[Ec]G/ | [DB]c/[DF]/- [DF]2 | %45
 z/ A/[Dc]/F/ A/[Dc][EG]/- | [EG]/B/[Ec]/G/ B/[Ec][EG]/- | [EG]/B/[Ec]/G/ B/[Ec]B/ | %48
 [Fe][Fc][Fe][Fc] | [Ee] f/g/- g/f/e/c/ | ec B/e[EG]/- | [EG]/B/[Ec]/G/ B/[Ec][CE]/- | %52
 [CE]/F/[CE] [_CE][CF]/[CE-]/ | E/F/[B,G]/E/ F/[B,G][=A,E]/- | [=A,E]/F/[A,G]/E/ z/ [_A,F]B,/ | %55
 [G,E] [DAB] [EGBe] |] %56
V:4
 [B,,,B,,] | [E,,E,]2 z [=E,,=E,] | [F,,F,]>[=E,,=E,] [F,,F,][B,,,B,,] | [E,,E,]2 z [=E,,=E,] | %4
 [F,,F,]>[=E,,=E,] !fermata![F,,F,] || [B,,,B,,] | [E,,E,]2 z [=E,,=E,] | [F,,F,]2 z [B,,,B,,] | %8
 [E,,E,]2 z [=E,,=E,] | [F,,F,]2 z [B,,,B,,] | [_C,,_C,]2 [B,,,B,,][B,,,B,,] | %11
 [_C,,_C,]2 [B,,,B,,] z | [E,,E,]2 [E,,E,]2 | [E,,E,]2 [E,,E,] ||[M:2/4] z | %15
 [_C,,_C,][C,,C,][C,,C,][C,,C,] | [B,,,B,,][B,,,B,,][B,,,B,,][B,,,B,,] | %17
 [_C,,_C,][C,,C,] [C,,C,][C,,C,] | [B,,,B,,][B,,,B,,][E,,E,] z | [_C,,_C,][C,,C,][C,,C,][C,,C,] | %20
 [B,,,B,,][B,,,B,,][B,,,B,,][B,,,B,,] | [_C,,_C,][C,,C,] [C,,C,][C,,C,] | %22
 [B,,,B,,][B,,,B,,][E,,E,] [=E,,=E,] |:[M:2/4] [F,,F,][B,,D,A,] [B,,,B,,][B,,D,A,] | %24
 [F,,F,][B,,D,A,] [B,,,B,,][D,,D,] | [E,,E,][B,,E,G,] [B,,,B,,][B,,E,G,] | %26
 [E,,E,][B,,E,G,] [E,,E,][=E,,=E,] | [F,,F,][B,,D,A,] [B,,,B,,][B,,D,A,] | %28
 [F,,F,][B,,D,A,] [F,,F,][^F,,^F,] | [E,,E,][B,,E,G,] [B,,,B,,][B,,E,G,] | %30
 [E,,E,][B,,E,G,] [E,,E,][=E,,=E,] | [F,,F,][B,,D,A,] [B,,,B,,][B,,D,A,] | %32
 [F,,F,][B,,D,A,] [B,,,B,,][D,,D,] | [E,,E,][B,,E,G,] [B,,,B,,][B,,E,G,] | %34
 [E,,E,][E,,E,] [D,,D,][_D,,_D,] | [C,,C,][C,,C,] [=E,,=E,][E,,E,] | %36
 [F,,F,][C,F,A,][C,F,A,][C,F,A,] | [F,,C,F,][F,,C,F,] [B,,,B,,][D,,D,] |1 %38
 [E,,E,][B,,E,G,][B,,E,G,][=E,,=E,] :|2 [E,,E,][E,G,B,][E,G,B,] [G,,G,] || %40
[M:2/4] [A,,A,][E,A,C][E,A,C][G,,G,] | [A,,A,][E,A,C] [F,,F,][^F,,^F,] | %42
 [G,,G,][E,G,B,][E,G,B,][B,,,B,,] | [E,,E,][B,,E,G,] [B,,,B,,][=E,,=E,] | %44
 [E,,E,][B,,E,G,] [B,,,B,,][=E,,=E,] | [F,,F,][B,,D,A,] [B,,,B,,][D,,D,] | %46
 [E,,E,][B,,E,G,] [B,,,B,,][B,,E,G,] | [E,,E,][B,,E,G,] [F,,F,][G,,G,] | %48
 [A,,A,][E,A,C][E,A,C][G,,G,] | [A,,A,][E,A,C] [F,,F,][^F,,^F,] | %50
 [G,,G,][E,G,B,][E,G,B,][B,,,B,,] | [E,,E,][B,,E,G,] [B,,,B,,][B,,E,G,] | %52
 [A,,,A,,][A,,,A,,] [F,,,F,,][=A,,,=A,,] | [B,,,B,,][B,,E,G,] [B,,,B,,][=B,,,=B,,] | %54
 [C,,C,][C,,C,] [D,,D,][D,,D,] | [E,,E,] [B,,,B,,] [E,,E,] |] %56

